dist/img/svg/icon-crumb.svg

<svg width="8" height="13" viewBox="0 0 8 13" fill="none" xmlns="http://www.w3.org/2000/svg">
<path d="M1.93014 9.84058C1.3134 9.84058 0.812012 10.3388 0.812012 10.9516C0.812012 11.5645 1.3134 12.0626 1.93014 12.0626C3.60733 12.0626 5.12479 11.3881 6.22073 10.2947C7.32111 9.20129 7.99997 7.69788 7.99997 6.03133C7.99997 4.36478 7.32111 2.85695 6.22073 1.76796C5.12035 0.67456 3.60733 0 1.93014 0C1.3134 0 0.812012 0.49821 0.812012 1.11104C0.812012 1.72387 1.3134 2.22207 1.93014 2.22207C2.99059 2.22207 3.94898 2.64973 4.64116 3.33751C5.33333 4.02529 5.76372 4.98201 5.76372 6.03573C5.76372 7.08945 5.33333 8.04177 4.64116 8.72955C3.94898 9.41292 2.99059 9.84058 1.93014 9.84058Z" fill="#2D3735"/>
<path fill-rule="evenodd" clip-rule="evenodd" d="M0 6.02709C0 7.06317 0.843032 7.90085 1.88573 7.90085C2.92843 7.90085 3.77146 7.06317 3.77146 6.02709C3.77146 4.991 2.92843 4.15332 1.88573 4.15332C0.843032 4.15332 0 4.991 0 6.02709Z" fill="#2D3735"/>
</svg>

<svg width="8" height="13" viewBox="0 0 8 13" fill="none" xmlns="http://www.w3.org/2000/svg"><path d="M1.93 9.84c-.617 0-1.118.499-1.118 1.112 0 .613.501 1.11 1.118 1.11a6.054 6.054 0 004.29-1.767A5.985 5.985 0 008 6.03a5.977 5.977 0 00-1.78-4.263A6.062 6.062 0 001.93 0C1.313 0 .812.498.812 1.111s.501 1.111 1.118 1.111c1.06 0 2.019.428 2.711 1.116a3.797 3.797 0 010 5.392 3.85 3.85 0 01-2.71 1.11z" fill="#2D3735"/><path fill-rule="evenodd" clip-rule="evenodd" d="M0 6.027c0 1.036.843 1.874 1.886 1.874A1.878 1.878 0 003.77 6.027a1.878 1.878 0 00-1.885-1.874A1.878 1.878 0 000 6.027z" fill="#2D3735"/></svg>
